X:1
T:Concerto in A minor
T:Concerto em Lรก menor
T:1ยบ Movimento
T:A. Vivaldi
T:2 ยบ Movimento
T:3ยบ Movimento
C:A. Vivaldi
L:1/8
Q:1/4=92
M:4/4
K:C
V:1 treble nm="Violino" snm="Vln."
V:1
"^Allegro"!mf!"^Tutti" ue | !1!aaaa ac'/b/ ac'/b/ | ac'/b/ a!2!g/f/ ed/c/ Bue | %3
 cA!breath!A!<(!e aaaa!<)! | a/g/f/e/ !breath!f!<(!d gggg!<)! | g/f/e/d/ !breath!e!<(!c ffff!<)! | %6
 f/e/d/c/ !breath!d!<(!B eeee!<)! | e/d/c/B/ cA z/!p! uA/c/e/ aa | %8
"_cresc." a/A/c/e/ aa a/A/c/e/ _bb | _ba/^g/ au=b!>(! d4-!>)! | !breath!d/E/^G/B/ dd d/E/G/B/ dd | %11
 d/E/^G/B/ de cB/A/ fe/d/ | e.a.E.^g a2 z!f!"^Solo" e | aaaa ac'/b/ ac'/b/ | %14
 ac'/b/ ag/f/ ed/c/ Bue | cA!breath!Ae eg/f/ ee | ag/f/ ee _bg/f/ eue | (a^c)(dF) .G.d.A,.c | %18
 d2 z !1!d df/e/ dd | gf/e/ dd af/e/ dud | (g!1!B)(cE) .F.c.G,.B | c2 z"^Tutti" e ec/d/ ee | %22
 ec/d/ ee ef/g/ ag/f/ | ed/c/ Bue cAAe |"^Solo" e/(A/B/A/) e/(A/B/A/) a/(A/B/A/) e/(A/B/A/) | %25
 a/(A/B/A/) e/(A/B/A/) g/(A/B/A/) e/(A/B/A/) | g/(A/B/A/) e/(A/B/A/) !4!f/(A/B/A/) d/(A/B/A/) | %27
 !4!f/(A/B/A/) d/(A/B/A/) fa/g/ ff |!f! !4!d'>!>(!c' b/a/g/f/!>)! e!p!!2!c/d/ e/f/g/a/ | %29
 d"_cresc."B/c/ d/e/f/g/ cA/B/ c/d/e/f/ | BG/A/ B/c/d/e/ cA/B/ c/d/e/f/ | %31
 dB/c/ d/e/f/g/ ec/d/ e/f/g/a/ |!>(! ^dB!>)! z e eg/^f/ ee | ag/^f/ ee bg/f/ eu!2!e | %34
 (c'^d)(eG) .!0!A.e.B,.^d | e2 z"^Tutti" B eeee | eg/^f/ eg/f/ eg/f/ e=d/c/ | %37
 BA/G/ ^FuB GE!breath!E!<(!B | eeee!<)! e/d/c/B/ !breath!c!<(!A | %39
 dddd!<)! d/c/B/A/ !breath!B!<(!G | cccc!<)! c/B/A/G/ !breath!A!<(!^F | BBBB!<)! B/A/G/^F/ GE | %42
!f! a^f/g/ aa af/g/ aa | a^f/g/ ab g3 f/e/ | ba/g/ ^f/e/^d/f/ eE z!p!"^Solo" ue | %45
 ba/g/ ^f/e/^d/f/ eE z!mf! v!2!b/c'/ | d'd'd'd' !0!e!2!b/c'/ d'd' | %47
 !0!e!2!b/c'/ d'c'/b/ c'!p!!0!A !breath!A!mf! !1!a/b/ | c'c'c'c' !0!D!1!a/b/ c'c' | %49
 !0!D!1!a/b/ c'b/a/ b!p!!0!G, !breath!G,!mf! g/a/ | _bbbb eg/a/ bub | %51
!<(! ^c/e/f/g/!<)!!>(! a/g/f/e/!>)! fd !breath!uD d/e/ | %52
!<(! f/d/=c/B/!<)!!>(! g/f/e/d/!>)! ec !breath!uC c/d/ | %53
!<(! e/c/B/A/!<)!!>(! f/e/d/c/!>)! dB !breath!uB, B/c/ | %54
!<(! d/B/A/^G/!<)!!>(! e/d/c/B/!>)! cA !breath!uA,!f! c/d/ | %55
 e^f/^g/ a=g/=f/ e!p!A, !breath!A, c/d/ | e^f/^g/ a=g/=f/ eA, !breath!A,!mf! c/d/ | %57
 ed/c/ B/A/^G/B/ AA,!breath!A,!f!"^Tutti" ue | !1!aaaa ac'/b/ ac'/b/ | %59
 ac'/b/ a!2!g/f/ ed/c/ B u^g |"^Solo" a/(c/B/A/) e/(c/B/A/) a/(c/B/A/) e/(c/B/A/) | %61
 a/(^c/B/A/) e/(c/B/A/) a/(c/B/A/) a/g/^f/e/ | ^f/(^F/E/D/) A/(F/E/D/) d/(F/E/D/) A/(F/E/D/) | %63
 d/(^F/E/D/) d/=c/B/A/ B/(B,/A,/G,/) D/(B,/A,/G,/) | %64
 G/(B,/A,/G,/) D/(B,/A,/G,/) G/(B,/A,/G,/) G/=F/E/D/ | %65
 E/(G/F/E/) c/(G/F/E/) c/(A/G/F/) d/(A/G/^F/) | d/(B/A/G/) e/(B/A/^G/) e/(c/B/A/) f/(c/B/A/) | %67
 f/(d/c/B/) g/(d/c/B/) g/(e/d/c/) a/(e/d/^c/) | a/(^f/e/d/) b/a/^g/f/ g/"^Tutti"E/^G/B/ dd | %69
 d/E/^G/B/ dd d/E/G/B/ de | cB/A/ fe/d/ e.a .E.^g | a2 z"^Solo" e (a/=g/a/)e/ (a/g/a/)e/ | %72
!<(! ^f/e/d/e/ f/g/a/f/!<)! (g/f/g/)d/ (g/=f/g/)d/ | %73
 e/!<(!d/c/d/ e/f/g/e/!<)! (f/e/f/)c/ (f/e/f/)c/ | %74
!<(! d/c/B/c/ d/e/f/d/!<)! (e/d/e/)B/ (e/d/e/)B/ | c/"^Tutti"A/c/e/ aa a/A/c/e/ aa | %76
 a/A/c/e/ _bb ba/^g/ au=b | d4- !breath!d/E/^G/B/ dd | d/E/^G/B/ dd d/E/G/B/ de | %79
 cB/A/ fe/d/"^rall." .e.a .E.^g |"_Senza Vibrato" a8 |] %81
[K:F][M:4/4][Q:1/8=60]"^Largo"!p! (v!1!d/e/f/e/) (d/f/e/d/) e"^Solo e Cantabile"A z2 | %82
!mf! (e/d/!1!e/f/) (e/f/g/a/) f/!2!e/d z/ !1!f/g/a/ | %83
 (b/a/g/f/) (b/a/g/f/) (!2!e/d/e/f/) (e/f/g/!breath!e/) | %84
 (!4!a/g/f/e/) (a/g/f/e/) (!2!d/^c/d/e/) (d/e/f/!breath!d/) | %85
 (!4!g/f/e/d/) (g/f/e/d/) !2!^c/=B/A z/!p! !2!e/f/g/ | fe/d/ !1!^c>d d2 z/!pp! !1!d/e/f/ | %87
!<(! (e/>f/)(e/>f/) (e/>f/)(e/>f/)!<)! e!3!d/c/ T=B>A | %88
 A2 z/!p! A/=B/^c/ (d/4c/4d/4e/4d/4c/4d/4e/4) (d/4c/4d/4e/4=c/4B/4c/4d/4) | %89
 T=B2 z/ B/c/!1!d/"_cresc." (e/4d/4e/4f/4)(e/4d/4e/4f/4) (e/4d/4e/4f/4)(!2!d/4^c/4d/4e/4) | %90
 T^c2 z/!mf! c/!1!d/e/ (f/4e/4f/4g/4)(f/4e/4f/4g/4) (f/4e/4f/4g/4)(e/4d/4e/4f/4) | %91
 Td2 z/ d/e/!1!f/!f! (g/4a/4b/4a/4g/4f/4!2!e/4d/4)!p! (!2!g/4a/4b/4a/4g/4f/4!2!e/4d/4) | %92
!mf! (3(!2!^c/=B/A/)(3(!3!f/e/d/) Tc>d d2 z/!pp! !1!d/f/d/ | %93
!<(! (_e/>f/)(e/>f/) (e/>f/)(e/>!1!^f/)!<)! g3!p! a/g/ | %94
 !3!fe/d/ T^c>d"^Senza Vibrato" !fermata!d4 |] %95
[K:C][M:2/4][Q:1/4=100]"^Presto" z!f!"^Tutti" ue !1!ab | c' z b z | a2 z !3!a | gf ed | cB AB | %100
 c z d z | e2 z2 | z!p! e !1!ab | c' z b z | a2 z !3!a | gf ed | cB AB | c z d z | e2 z!f! e | %109
 !3!c'c' c'c' | c'/d/d/c'/ c'/d/d/c'/ | bb b!3!b | b/c/c/b/ b/c/c/b/ | aa a!3!a | ^g^f/g/ ab/a/ | %115
 ^g^f/g/ ab/a/ | ^g^f/e/ !3!=fe/d/ | !breath!e3 .f | e3 .f | ed/e/ ff | ed/e/ ff | e^f/^g/ aa/b/ | %122
 c'c'/d'/ !0!e'2 | z ua e^g |!ff! a"^Solo"e !1!a/c'/b/d'/ | c' z b z | a2 z !3!a | %127
 g/a/f/g/ e/f/d/e/ | c/d/B/c/ A!p!a | g/a/f/g/ e/f/d/e/ | c/d/B/c/ !breath!Ae | %131
!f! e/g/f/g/ e/g/f/g/ | (a/g/f/e/) (a/g/f/e/) | !4!f/d/^c/d/ f/d/c/d/ | (!4!g/f/e/d/) (g/f/e/d/) | %135
"_dim." e/!2!c/B/c/ e/c/B/c/ | (!4!f/e/d/c/) (f/e/d/c/) | d/!1!B/A/B/ d/B/A/B/ | %138
 (e/d/c/B/) (e/d/c/B/) |!f! c/A/c/e/ a/b/a/b/ |!p! c/A/c/e/ a/b/a/b/ |!f! ^d/B/d/^f/ a/b/a/b/ | %142
!p! ^d/B/d/^f/ a/b/a/b/ |!mf! g^f/e/ T!1!^d>e | !breath!e!f!"^Tutti"B e^f | g z ^f z | e!p!B e^f | %147
 g z ^f z | e2 z"^Solo"!ff! B | g/a/g/a/ g/a/g/a/ | g(^f/g/) (a/g/)(f/e/) | ^f/g/f/g/ f/g/f/g/ | %152
 ^f(e/f/) (g/f/)(e/!1!^d/) | e/^f/e/f/ e/f/e/f/ | e(^d/e/) (^f/e/)(d/!2!^c/) | %155
 ^d^c/d/ B"^Tutti"ub | ^g^f/g/ ab/a/ | ^g^f/g/ ab/a/ | ^g^f/e/ !3!=fe/d/ | !breath!e3 .f | e3 .f | %161
 ed/e/ ff | ed/e/ ff | e^f/^g/ aa/b/ | c'c'/d'/ !0!e'!ff!"^Solo"ue | !1!aa/b/ c'c'/d'/ | %166
 !0!e'!0!e ee | !1!aa/b/ c'c'/d'/ | !0!e'!0!e ee | a/A/^c/e/ a/A/c/e/ | a/A/^c/e/ a/A/c/e/ | %171
 g/A/^c/e/ g/A/c/e/ | g/A/^c/e/ g/A/c/e/ | ^f/D/^F/A/ d/D/F/A/ | d/D/^F/A/ d/D/F/A/ | %175
 c/D/^F/A/ c/D/F/A/ | c/D/^F/A/ c/D/F/A/ | B/G/A/B/ c/d/e/f/ | g/!1!c/d/e/ f/g/a/b/ | %179
 c'/!1!g/!3!e/g/ c'/g/e/g/ | c'/g/e/g/ c'/g/e/g/ | c'/g/!2!d/g/ c'/g/d/g/ | c'/g/d/g/ c'/g/d/g/ | %183
 b/g/d/g/ b/g/d/g/ | b/g/d/g/ b/g/d/b/ | !breath!c'"^Tutti"!2!G cd | e z d z |!p! cG cd | e z d z | %189
 c2 z!f! e | !3!aa aa | ag/^f/ ba | g^f/e/ B^d | !breath!eB e^f | g z ^f z | e!p!B e^f | g z ^f z | %197
 e2 z!f! e | !3!c'c' c'c' | c'/d/d/c'/ c'/d/d/c'/ | bb b!3!b | b/c/c/b/ b/c/c/b/ | aa a!3!a | %203
!ff!"^Solo" ^g/e/g/e/ b/e/g/e/ | b/e/^g/e/ b/e/g/e/ | !1!a/!0!e/e/e/ !1!a/!0!e/e/e/ | %206
 !2!b/!0!e/e/e/ !2!b/!0!e/e/e/ | !3!c'/!0!e/e/e/ !3!c'/!0!e/e/e/ | %208
 !4!d'/!0!e/e/e/ !4!d'/!0!e/e/e/ | !breath!!0!e'"^Tutti"e ab | c' z b z | a2 z !3!a | gf ed | %213
 cB AB | c z d z | e2 z!ff!"^Solo" e | !3!c'/d'/c'/d'/ c'/d'/c'/d'/ | c'(b/c'/) (d'/c'/)(b/a/) | %218
 b/c'/b/c'/ b/c'/b/c'/ | b(a/b/) (c'/b/)(a/!2!^g/) | a/b/a/b/ a/b/a/b/ |"^Tutti"!f! ^g^f/g/ ab/a/ | %222
!p! ^g^f/g/ ab/a/ |!f! ^g^f/e/ !1!=fe/d/ |!ff!"^Solo" e/a/^g/a/ ef |!mp! e/a/^g/a/ ef | %226
"^Tutti"!f! !2!ed/e/ ff |!p! ed/e/ ff |!ff!"^Solo" e^f/^g/ aa/b/ | c'c'/d'/ !0!e'"^Tutti"e | %230
 !1!fe ac | Ba B^g |!ff! !breath!a"^Solo"e aa | ^g/^f/e/f/ =ga | ^f/e/d/e/ =fg | e/d/c/d/ ef | %236
 d/c/B/c/ de | c/"^Tutti"A/c/e/ ac |"^rall." !>!B!>!a !>!B!>!^g |"_Senza Vibrato" !fermata!a4 |] %240

